packages/foundations/assets/icons/functional/images/technology/wifi_disabled_14.svg

<svg width="14" height="14" viewBox="0 0 14 14" fill="none" xmlns="http://www.w3.org/2000/svg">
<g clip-path="url(#clip0_187_664)">
<path fill-rule="evenodd" clip-rule="evenodd" d="M8.0276 9.27347C8.45639 9.50947 8.75 9.96423 8.75 10.5C8.75 11.2656 8.1375 11.9 7.35 11.9C6.82522 11.9 6.3621 11.6122 6.12267 11.1776L8.0276 9.27347ZM7.39375 2.09998C8.49428 2.09998 9.57476 2.34121 10.5612 2.79776L11.055 2.305C11.3284 2.03163 11.7716 2.03163 12.045 2.305C12.2973 2.55734 12.3167 2.9544 12.1032 3.22901L12.045 3.29495L3.64497 11.695C3.37161 11.9683 2.92839 11.9683 2.65503 11.695C2.40269 11.4426 2.36039 11.039 2.65503 10.705C3.94333 9.41636 4.90956 8.44988 5.55372 7.80556C5.56852 7.78652 5.55372 7.75635 5.53437 7.75635C5.40312 7.8879 5.22813 7.95367 5.03125 7.95367C4.61562 7.95367 4.33125 7.58096 4.33125 7.2521C4.33125 7.07671 4.39687 6.8794 4.55 6.74785C5.35937 5.98051 6.23438 5.58588 7.39375 5.58588C7.51588 5.58588 7.63715 5.59129 7.75732 5.60198L9.50115 3.85916C8.83399 3.61096 8.1225 3.48119 7.39375 3.48119C5.66562 3.48119 4.1125 4.11698 2.93125 5.30087C2.8 5.43242 2.625 5.52011 2.45 5.52011C2.14375 5.52011 1.75 5.27895 1.75 4.81855C1.75 4.62123 1.81562 4.46776 1.94687 4.3143C3.45625 2.82347 5.18437 2.09998 7.39375 2.09998Z" fill="#1A1C1F"/>
</g>
<defs>
<clipPath id="clip0_187_664">
<rect width="14" height="14" fill="white"/>
</clipPath>
</defs>
</svg>

<svg xmlns="http://www.w3.org/2000/svg" width="14" height="14" fill="none"><g clip-path="url(#a)"><path fill="#1A1C1F" fill-rule="evenodd" d="M8.028 9.273c.428.236.722.691.722 1.227 0 .766-.613 1.4-1.4 1.4a1.4 1.4 0 0 1-1.227-.722zM7.394 2.1c1.1 0 2.18.241 3.167.698l.494-.493a.7.7 0 0 1 1.048.924l-.058.066-8.4 8.4a.7.7 0 0 1-.99 0c-.252-.252-.295-.656 0-.99l2.899-2.9c.015-.018 0-.049-.02-.049a.7.7 0 0 1-.503.198c-.415 0-.7-.373-.7-.702 0-.175.066-.373.219-.504.81-.767 1.684-1.162 2.844-1.162q.183 0 .363.016l1.744-1.743a6 6 0 0 0-2.107-.378c-1.728 0-3.282.636-4.463 1.82a.7.7 0 0 1-.481.22c-.306 0-.7-.242-.7-.702 0-.198.066-.351.197-.505C3.457 2.824 5.184 2.1 7.394 2.1" clip-rule="evenodd"/></g><defs><clipPath id="a"><path fill="#fff" d="M0 0h14v14H0z"/></clipPath></defs></svg>
